packages/bezier-icons/icons/event.svg

<svg width="24" height="24" viewBox="0 0 24 24" fill="none" xmlns="http://www.w3.org/2000/svg">
<path fill-rule="evenodd" clip-rule="evenodd" d="M6.2432 5.33201C9.2842 0.889006 15.7162 0.889006 18.7562 5.33201C20.5182 7.90501 20.3532 11.345 18.6102 13.931L12.9442 22.339C12.7322 22.655 12.2682 22.655 12.0562 22.339L6.3892 13.931C4.6462 11.345 4.4822 7.90501 6.2432 5.33201ZM14.7788 13.9457L12.5002 12.2905L10.2216 13.9457C9.69442 14.3286 8.98536 13.8133 9.18679 13.1938L10.0568 10.5152L7.7782 8.85994C7.25153 8.47708 7.52248 7.64326 8.17392 7.64326H10.9901L11.8606 4.96465C12.0621 4.34512 12.9383 4.34512 13.1397 4.96465L14.0102 7.64326H16.8264C17.4778 7.64326 17.7483 8.47708 17.2217 8.85994L14.9431 10.5152L15.8135 13.1938C16.0145 13.8133 15.3059 14.3286 14.7788 13.9457Z" fill="#313234"/>
</svg>

<svg xmlns="http://www.w3.org/2000/svg" width="24" height="24" fill="none" viewBox="0 0 24 24"><path fill="#313234" fill-rule="evenodd" d="M6.243 5.332a7.54 7.54 0 0 1 12.513 0c1.762 2.573 1.597 6.013-.146 8.599l-5.666 8.408a.534.534 0 0 1-.888 0L6.39 13.931c-1.743-2.586-1.907-6.026-.146-8.599m8.536 8.614L12.5 12.29l-2.278 1.655c-.528.383-1.237-.133-1.035-.752l.87-2.679L7.778 8.86c-.526-.383-.256-1.217.396-1.217h2.816l.87-2.678c.202-.62 1.078-.62 1.28 0l.87 2.678h2.816c.652 0 .922.834.396 1.217l-2.279 1.655.87 2.679c.202.62-.507 1.135-1.034.752" clip-rule="evenodd"/></svg>
